X: 19955
T: Jiggolo, The
R: jig
M: 6/8
K: Amajor
|:fee aee|fee aee|cBA FFF|EFA B2e|
fee aee|fee aee|EFA ABc|BcB A3:|
|:cBA f2f|efe f2f|cBA e3|aec B3|
cBA F3|EFA BBB|afe afe|cBA A3:|

